assets/markdown/mono.svg

<svg viewBox="0 0 24 24" xmlns="http://www.w3.org/2000/svg"><path d="m22.27 19.385h-20.54a1.73 1.73 0 0 1 -1.73-1.73v-11.31a1.73 1.73 0 0 1 1.73-1.73h20.54a1.73 1.73 0 0 1 1.73 1.73v11.308a1.73 1.73 0 0 1 -1.73 1.731zm-16.501-3.462v-4.5l2.308 2.885 2.307-2.885v4.5h2.308v-7.845h-2.308l-2.307 2.885-2.308-2.885h-2.309v7.847zm15.463-3.923h-2.309v-3.923h-2.307v3.923h-2.308l3.461 4.039z"/></svg>

<svg xmlns="http://www.w3.org/2000/svg" viewBox="0 0 24 24"><path d="M22.27 19.385H1.73A1.73 1.73 0 0 1 0 17.655V6.345a1.73 1.73 0 0 1 1.73-1.73h20.54A1.73 1.73 0 0 1 24 6.345v11.308a1.73 1.73 0 0 1-1.73 1.731zM5.769 15.923v-4.5l2.308 2.885 2.307-2.885v4.5h2.308V8.078h-2.308l-2.307 2.885-2.308-2.885H3.46v7.847zM21.232 12h-2.309V8.077h-2.307V12h-2.308l3.461 4.039z"/></svg>
